src/resources/call-icon.svg

<svg fill="none" height="24" viewBox="0 0 24 24" width="24" xmlns="http://www.w3.org/2000/svg"><path d="m9.6257 7.33815c-.48882.73923-1.62573 1.80072-1.62573 2.66185 0 .9972 1.06264 3.0054 2.44273 4.3684 1.38 1.3631 2.5476 2.1316 3.5573 2.1316.6874 0 1.0328-1.6579 2.8689-1.6579 1.377 0 3.1311 1.5 3.6311 3.1579.2867.9506-.8361 1.8088-2.0952 2.4062-.9871.4685-2.0938.637-3.1814.5323-1.9865-.1911-4.8188-.9762-8.22342-4.2017-3.90152-4.2368-4.0985-7.01242-4.00001-9.72295.0985-2.71053 2.50001-4.01385 3.31159-4.01385.75293 0 3.11285 2.03844 3.45004 3.64692.05023.23957-.00089.48705-.1359.69123z" fill="#b1b5b4"/></svg>

<svg width="24" height="24" viewBox="0 0 24 24" fill="none" xmlns="http://www.w3.org/2000/svg">
<path d="M9.6257 7.33815C9.13688 8.07738 7.99997 9.13887 7.99997 10C7.99997 10.9972 9.06261 13.0054 10.4427 14.3684C11.8227 15.7315 12.9903 16.5 14 16.5C14.6874 16.5 15.0328 14.8421 16.8689 14.8421C18.2459 14.8421 20 16.3421 20.5 18C20.7867 18.9506 19.6639 19.8088 18.4048 20.4062C17.4177 20.8747 16.311 21.0432 15.2234 20.9385C13.2369 20.7474 10.4046 19.9623 6.99998 16.7368C3.09846 12.5 2.90148 9.72438 2.99997 7.01385C3.09847 4.30332 5.49998 3 6.31156 3C7.06449 3 9.42441 5.03844 9.7616 6.64692C9.81183 6.88649 9.76071 7.13397 9.6257 7.33815Z" fill="#B1B5B4"/>
</svg>
